!!!!SEGMENT: pl-wtm--r-2548--002_hertz-michal--jak-wam-sie-podoba-no-2.krn
!!!cenid: 18xx:3109
!!!COM: Hertz, Michał
!!!COM-rismid: pe41023359
!!!CDT: 1844/09/28-~1918
!!!CNT: Polish
!!!GTL: Jak wam się podoba
!!!OTL: No. 2
!!!PDT:
!!!AGN:
!!!SMS-siglum: PL-Wtm
!!!SMS-shelfmark: R 2548
!!!SMS-shelfwork: 002 G
!!!SMS-variant:
!!!SMS-altvar:
!!!NIFC-rismid: 1001082244
!!!URL-scan: http://repozytorium.nifc.pl/skany/pl-wtm-nut--r2548
!!!ONB-nifc:
!!!OMD: Maestoso.
!!!key: C
**kern	**kern	**dynam
*part1	*part1	*part1
*staff2	*staff1	*
*I"[Piano]	*I"[Piano]	*
*Ipiano	*Ipiano	*
*ICklav	*ICklav	*
*clefF4	*clefG2	*
*k[]	*k[]	*
*C:	*C:	*
*M4/4	*M4/4	*
*met(c)	*met(c)	*
=1	=1	=1
!!LO:TX:t=P:problem:all\ left or right:global
*tremolo	*	*
(16CC/LL	8r	.
16C/	.	.
16CC/	8c/ 8e 8g	.
16C/	.	.
16CC/	(>(<(<(<2c/ 2e 2g 2cc	.
16C/	.	.
16CC/	.	.
16C/JJ)	.	.
*Xtremolo	*	*
8CC/	.	.
8r	.	.
8.CC/L 8.C	8.e\L)))) 8.g 8.cc 8.ee	.
16CC/Jk 16C	16c\Jk 16e 16g 16cc	.
=2	=2	=2
*tremolo	*	*
!	!LO:N:xstem	!
(16GGG/LL	(>(<(<(<2g\ 2b 2dd 2gg	.
16GG/	.	.
16GGG/	.	.
16GG/	.	.
16GGG/	.	.
16GG/	.	.
16GGG/	.	.
16GG/JJ)	.	.
*Xtremolo	*	*
4C\ 4c	4e\)))) 4g 4cc 4ee	.
!LO:N:vis=2	!LO:N:vis=2	!
4r;	4r;	.
!!LO:LB:g=original
=3||	=3||	=3||
*M4/4	*M4/4	*
*met(c)	*met(c)	*
*^	*^	*
!	!	!LO:TX:a:t=Allegro. /Ringeri/	!LO:DY:rj	!
2r	2r	8.r	4c\	f
.	.	16cc/	.	.
.	.	8.c/L	4ryy	.
.	.	16c/Jk	.	.
8.B/L	8.r	[>2c/	2ryy	.
16B/Jk	16B\	.	.	.
8.B/L	8.BB\L	.	.	.
16B/Jk	16BB\Jk	.	.	.
*v	*v	*	*	*
*	*v	*v	*
=4	=4	=4
((8BB\ 8B	[4c/]	.
[4.AA\)) [4.A	.	.
*	*Xtuplet	*
!	!LO:TUP:a:problem:klamra łukowa	!
.	(28c/LLL]	.
.	28d/	.
.	28e/	.
.	28f/	.
.	28g/	.
.	28a/	.
.	28b/JJJ)	.
8AA\L] 8A]	8c\L 8cc	.
16r	16r	.
!LO:TX:t=P:problem:przepełniona miara w takcie	!	!
16GG\Jk 16G	16c\Jk 16e 16cc	.
*	*tuplet	*
!	!LO:TUP:a:problem:klamra łukowa	!
8FF\L 8F	12c\L 12e 12a 12cc	.
.	12d\ 12f 12a 12dd	.
8EE\J 8E	.	.
.	12e\J 12a 12cc 12ee	.
=5	=5	=5
4DD\ 4D	8f\ 8a 8cc 8ff	.
.	8r	.
*	*tremolo	*
4r	(32f/LLL	.
.	32d/	.
.	32f/	.
.	32d/	.
.	32f/	.
.	32d/	.
.	32f/	.
.	32d/	.
4r	32f/	.
.	32d/	.
.	32f/	.
.	32d/	.
.	32f/	.
.	32d/	.
.	32f/	.
.	32d/	.
*Xtuplet	*	*
!LO:TUP:b:problem:klamra łukowa	!	!
28DD/LLL	32f/	.
.	32d/	.
28EE/	.	.
.	32f/	.
28FF/	.	.
.	32d/	.
28GG/	.	.
.	32f/	.
28AA/	.	.
.	32d/	.
28BBn/	.	.
.	32f/	.
28C#X/JJJ	.	.
.	32d/JJJ)	.
=6	=6	=6
(4..DD\ 4..D	(32f/LLL	.
.	32d/	.
.	32f/	.
.	32d/	.
.	32f/	.
.	32d/	.
.	32f/	.
.	32d/	.
.	32f/	.
.	32d/	.
.	32f/	.
.	32d/	.
.	32f/	.
.	32d/	.
!LO:N:vis=8	!	!
16EE\) 16E	32f/	.
.	32d/JJJ)	.
(8FF\L 8F	(32f/LLL	.
.	32d/	.
.	32f/	.
.	32d/	.
8DD\J) 8D	32f/	.
.	32d/	.
.	32f/	.
.	32d/	.
4r	32f/	.
.	32d/	.
.	32f/	.
.	32d/	.
.	32f/	.
.	32d/	.
.	32f/	.
.	32d/JJJ)	.
!!LO:LB:g=original
=7	=7	=7
(4..DD\ 4..D	(32f/LLL	.
.	32d/	.
.	32f/	.
.	32d/	.
.	32f/	.
.	32d/	.
.	32f/	.
.	32d/	.
.	32f/	.
.	32d/	.
.	32f/	.
.	32d/	.
.	32f/	.
.	32d/	.
16EE\) 16E	32f/	.
.	32d/JJJ)	.
*	*rep	*
(8FF\L 8F	(32f/LLL	.
.	32d/	.
.	32f/	.
.	32d/	.
8EE\) 8E	32f/	.
.	32d/	.
.	32f/	.
.	32d/	.
8DD\ 8D	32f/	.
.	32d/	.
.	32f/	.
.	32d/	.
16r	32f/	.
.	32d/	.
16CC\Jk 16C	32f/	.
.	32d/JJJ)	.
*	*Xrep	*
=8	=8	=8
*	*rep	*
2BBB/ 2BB	(32f/LLL	.
.	32d/	.
.	32f/	.
.	32d/	.
.	32f/	.
.	32d/	.
.	32f/	.
.	32d/	.
.	32f/	.
.	32d/	.
.	32f/	.
.	32d/	.
.	32f/	.
.	32d/	.
.	32f/	.
.	32d/JJJ)	.
2AAT/	(32f/LLL	.
.	32d/	.
.	32f/	.
.	32d/	.
.	32f/	.
.	32d/	.
.	32f/	.
.	32d/	.
.	32f/	.
.	32d/	.
.	32f/	.
.	32d/	.
.	32f/	.
.	32d/	.
.	32f/	.
.	32d/JJJ)	.
*	*Xrep	*
(<16qqGG/LL	.	.
16qqAA/JJ	.	.
=9	=9	=9
*	*rep	*
(4..GG\) 4..G	(32f/LLL	.
.	32d/	.
.	32f/	.
.	32d/	.
.	32f/	.
.	32d/	.
.	32f/	.
.	32d/	.
.	32f/	.
.	32d/	.
.	32f/	.
.	32d/	.
.	32f/	.
.	32d/	.
16FF\) 16F	32f/	.
.	32d/JJJ)	.
4FF\ 4F	(32f/LLL	.
.	32d/	.
.	32f/	.
.	32d/	.
.	32f/	.
.	32d/	.
.	32f/	.
.	32d/	.
(8EE\L 8E	32f/	.
.	32d/	.
.	32f/	.
.	32d/	.
8FF\J) 8F	32f/	.
.	32d/	.
.	32f/	.
.	32d/JJJ)	.
*	*Xrep	*
*	*Xtremolo	*
=10	=10	=10
*	*^	*
*2\right	*	*	*
2EE\ 2E	2g/	8d\L	.
.	.	[8c\J	.
*	*	*Xtuplet	*
!	!	!LO:TUP:a:problem:klamra łukowa	!
.	.	28c\LLL]	.
.	.	28d\	.
.	.	28e\	.
.	.	28f\	.
.	.	28g\	.
.	.	28a\	.
.	.	28b\JJJ	.
(8FF\L 8F	[<2c/ [<2g [>2cc	2ryy	.
[8EE\J) 8E	.	.	.
!LO:TUP:b:problem:klamra łukowa	!	!	!
28EE/LLL]	.	.	.
28FF/	.	.	.
28GG/	.	.	.
28AA/	.	.	.
28BB/	.	.	.
28C/	.	.	.
28D/JJJ	.	.	.
*	*v	*v	*
!!LO:LB:g=original
=11	=11	=11
[2EE\ [2E	8c\] 8g] 8cc]	.
.	16r	.
.	16F/ 16c	.
.	[4G#X/ [4c	.
8.EE\L] 8.E]	8.G#/L] 8.c]	.
16FF\K 16F	16A/K 16c	.
8FF\ 8F	8A/ 8c 8a	.
8AA\J 8A	8c/J 8f	.
=12	=12	=12
*	*2\right	*
((2AAA/ 2AA	(2c\ 2f 2cc	.
4FFF/)) 4FF	4c/) 4f 4a	.
4r;<	4r;	.
=13	=13	=13
*^	*^	*
2r	2ryy	8.r	4f\	.
.	.	16ff/	.	.
.	.	8.f/L	4ryy	.
.	.	16f/Jk	.	.
8.e/L	8.r	[>2f/	2ryy	.
16e/Jk	16e\	.	.	.
8.e/L	8.E\L	.	.	.
16e/Jk	16E\Jk	.	.	.
*v	*v	*	*	*
*	*v	*v	*
=14	=14	=14
(8E\ 8e	4f/_>	.
[4.D\) [4.d	.	.
!	!LO:TUP:a:problem:klamra łukowa	!
.	28f\LLL]	.
.	28g\	.
.	28a\	.
.	28b-X\	.
.	28cc\	.
.	28dd\	.
.	28ee\JJJ	.
8D\L] 8d]	8f\L 8ff	.
16r	16r	.
16C\J 16c	16f\Jk 16a 16ff	.
*	*tuplet	*
!	!LO:TUP:a:problem:klamra łukowa	!
8BB-X\L 8B-X	12f\L 12b-X 12dd 12ff	.
.	12g\ 12b- 12dd 12gg	.
8AA\J 8A	.	.
.	12a\J 12dd 12ff 12aa	.
!!LO:PB:g=original
=15	=15	=15
8GG\ 8G	8b-X\ 8dd 8ff 8bb-X	.
8r	8r	.
*	*tremolo	*
4r	32b-\LLL	.
.	32g\	.
.	32b-\	.
.	32g\	.
.	32b-\	.
.	32g\	.
.	32b-\	.
.	32g\	.
4r	32b-\	.
.	32g\	.
.	32b-\	.
.	32g\	.
.	32b-\	.
.	32g\	.
.	32b-\	.
.	32g\	.
!LO:TUP:a:problem:klamra łukowa	!	!
28GG\LLL	32b-\	.
.	32g\	.
28AA\	.	.
.	32b-\	.
28BB-X\	.	.
.	32g\	.
28C\	.	.
.	32b-\	.
28D\	.	.
.	32g\	.
28E\	.	.
.	32b-\	.
28F#X\JJJ	.	.
.	32g\JJJ	.
=16	=16	=16
(4..GG\ 4..G	(32b-X\LLL	.
.	32g\	.
.	32b-\	.
.	32g\	.
.	32b-\	.
.	32g\	.
.	32b-\	.
.	32g\	.
.	32b-\	.
.	32g\	.
.	32b-\	.
.	32g\	.
.	32b-\	.
.	32g\	.
16AA\) 16A	32b-\	.
.	32g\JJJ)	.
*	*rep	*
(8BB-X\L 8B-X	(32b-\LLL	.
.	32g\	.
.	32b-\	.
.	32g\	.
8GG\J) 8G	32b-\	.
.	32g\	.
.	32b-\	.
.	32g\	.
4r	32b-\	.
.	32g\	.
.	32b-\	.
.	32g\	.
.	32b-\	.
.	32g\	.
.	32b-\	.
.	32g\JJJ)	.
*	*Xrep	*
=17	=17	=17
(4..GG\ 4..G	(32b-X\LLL	.
.	32g\	.
.	32b-\	.
.	32g\	.
.	32b-\	.
.	32g\	.
.	32b-\	.
.	32g\	.
.	32b-\	.
.	32g\	.
.	32b-\	.
.	32g\	.
.	32b-\	.
.	32g\	.
16AA\) 16A	32b-\	.
.	32g\JJJ)	.
*	*rep	*
(8BB-X\L 8B-X	(32b-\LLL	.
.	32g\	.
.	32b-\	.
.	32g\	.
8AA\) 8A	32b-\	.
.	32g\	.
.	32b-\	.
.	32g\	.
8GG\ 8G	32b-\	.
.	32g\	.
.	32b-\	.
.	32g\	.
16r	32b-\	.
.	32g\	.
16FF\Jk 16F	32b-\	.
.	32g\JJJ)	.
*	*Xrep	*
=18	=18	=18
*	*rep	*
2EE\ 2E	(32b-X\LLL	.
.	32g\	.
.	32b-\	.
.	32g\	.
.	32b-\	.
.	32g\	.
.	32b-\	.
.	32g\	.
.	32b-\	.
.	32g\	.
.	32b-\	.
.	32g\	.
.	32b-\	.
.	32g\	.
.	32b-\	.
.	32g\JJJ)	.
2DT\	(32b-\LLL	.
.	32g\	.
.	32b-\	.
.	32g\	.
.	32b-\	.
.	32g\	.
.	32b-\	.
.	32g\	.
.	32b-\	.
.	32g\	.
.	32b-\	.
.	32g\	.
.	32b-\	.
.	32g\	.
.	32b-\	.
.	32g\JJJ)	.
*	*Xrep	*
(32qqC/LLL	.	.
32qqD/JJJ)	.	.
!!LO:LB:g=original
=19	=19	=19
(4..C\ 4..c	(32b-X\LLL	.
.	32g\	.
.	32b-\	.
.	32g\	.
.	32b-\	.
.	32g\	.
.	32b-\	.
.	32g\	.
.	32b-\	.
.	32g\	.
.	32b-\	.
.	32g\	.
.	32b-\	.
.	32g\	.
16BBn\) 16Bn	32b-\	.
.	32g\JJJ)	.
*	*rep	*
4BB-X\ 4B-X	(32b-\LLL	.
.	32g\	.
.	32b-\	.
.	32g\	.
.	32b-\	.
.	32g\	.
.	32b-\	.
.	32g\	.
(8AA\L 8A	32b-\	.
.	32g\	.
.	32b-\	.
.	32g\	.
8BB-\J) 8B-	32b-\	.
.	32g\	.
.	32b-\	.
.	32g\JJJ)	.
*	*Xrep	*
*	*Xtremolo	*
=20	=20	=20
*	*^	*
2AA\ 2A	2cc/	(>8g\L	.
.	.	[>8f\J)	.
*	*	*Xtuplet	*
!	!	!LO:TUP:a:problem:klamra łukowa	!
.	.	28f\LLL]	.
.	.	28g\	.
.	.	28a\	.
.	.	28b-X\	.
.	.	28cc\	.
.	.	28dd\	.
.	.	28ee\JJJ	.
(8BB-X\L 8B-X	[<2f\ [>2cc [>2ff	2ryy	.
8AA\J) 8A	.	.	.
!LO:TUP:a:problem:klamra łukowa	!	!	!
28AA\LLL	.	.	.
28BB-X\	.	.	.
28C\	.	.	.
28D\	.	.	.
28E\	.	.	.
28F\	.	.	.
28G\JJJ	.	.	.
*	*v	*v	*
=21	=21	=21
[2AA\ [2A	8f\] 8cc] 8ff]	.
.	16r	.
.	16c/ 16f	.
.	[4c#X/ [4f	.
8.AA\L] 8.A]	8c#\L] 8f]	.
.	8d\ 8f	.
16BB-X\K 16B-X	.	.
8BB-\ 8B-	8d\ 8f 8dd	.
8D\J 8d	8f\J 8b-X	.
=22	=22	=22
((2DD/ 2D	(2f\ 2b-X 2ff	.
4BBB-X/)) 4BB-X	4f\) 4b- 4dd	.
4r;<	4r;	.
!!LO:LB:g=original
=23	=23	=23
*^	*^	*
2r	2ryy	8.r	4d\	.
.	.	16dd/	.	.
.	.	8.d/L	8.d\L	.
.	.	16d/Jk	16d\Jk	.
8.c/L	8.r	[2d/	[2d\	.
16c/Jk	16c\	.	.	.
8.c/L	8.C\L	.	.	.
16c/Jk	16C\Jk	.	.	.
*v	*v	*	*	*
=24	=24	=24	=24
(8C\L 8c	4d/_>	2d\_	.
[8BB-X\J) [8B-X	.	.	.
4BB-\_ 4B-]	28d/LLL]	.	.
.	28e/	.	.
.	28f#X/	.	.
.	28g/	.	.
.	28a/	.	.
.	28b-X/	.	.
.	28cc/JJJ	.	.
!LO:TUP:a:problem:klamra łukowa	!	!	!
28BB-\LLL]	8dd/	8d\]	.
28C\	.	.	.
28D\	.	.	.
28E\	.	.	.
.	8r	8ryy	.
28F#X\	.	.	.
28G\	.	.	.
28A\JJJ	.	.	.
8B-X\	4r	4ryy	.
8r	.	.	.
=25	=25	=25	=25
*^	*	*	*
2r	2ryy	8.r	4e\	.
.	.	16ee/	.	.
.	.	8.e/L	8.e\L	.
.	.	16e/Jk	16e\Jk	.
8.d/L	8.r	[2e/	[2e\	.
16d/Jk	16d\	.	.	.
8.d/L	8.D\L	.	.	.
16d/Jk	16D\Jk	.	.	.
*v	*v	*	*	*
=26	=26	=26	=26
(8D\L 8d	4e/_	2e\_	.
[8C\J) [8c	.	.	.
!	!LO:TUP:b:problem:klamra łukowa	!	!
4C\_ 4c]	28e/LLL]	.	.
.	28f#X/	.	.
.	28g#X/	.	.
.	28a/	.	.
.	28b/	.	.
.	28cc/	.	.
.	28dd/JJJ	.	.
!LO:TUP:a:problem:klamra łukowa	!	!	!
28C\LLL]	8ee/	8e\]	.
28D\	.	.	.
28E\	.	.	.
28F#X\	.	.	.
.	8r	8ryy	.
28G#X\	.	.	.
28A\	.	.	.
28B\JJJ	.	.	.
8c\	4r	4ryy	.
8r	.	.	.
*	*v	*v	*
!!LO:LB:g=original
=27	=27	=27
!	!LO:TUP:a:problem:klamra łukowa	!
((8E\ 8e	28fn\LLL	.
.	28gn\	.
.	28a\	.
.	28b\	.
4.D\)) 4.d	.	.
.	28cc\	.
.	28dd\	.
.	28ee\JJJ	.
.	[4f\ 4ff	.
!	!LO:TUP:a:problem:klamra łukowa	!
(8E\L 8e	32f\LLL]	.
.	32g\	.
.	32a\	.
.	32b\	.
8D\J) 8d	32cc\	.
.	32dd\	.
.	32ee\	.
.	32ff\JJJ	.
8G\	8B/ 8f 8b	.
8r	8r	.
=28	=28	=28
!	!LO:TUP:a:problem:klamra łukowa	!
((8F\ 8f	28g\LLL	.
.	28a\	.
.	28b\	.
.	28cc\	.
4.E\)) 4.e	.	.
.	28dd\	.
.	28ee\	.
.	28ff\JJJ	.
.	[4g\ 4gg	.
!	!LO:TUP:a:problem:klamra łukowa	!
(8F\L 8f	32g\LLL]	.
.	32a\	.
.	32b\	.
.	32cc\	.
8E\J) 8e	32dd\	.
.	32ee\	.
.	32ff\	.
.	32gg\JJJ	.
8A\	8c\ 8g 8cc	.
8r	8r	.
!!LO:LB:g=original
=29	=29	=29
!LO:TX:a:t=1	!LO:TX:a:t=1	!
!	!LO:TUP:a:problem:klamra łukowa	!
(8G\L 8g	32a\LLL	.
.	32b\	.
.	32cc\	.
.	32dd\	.
8F\J) 8f	32ee\	.
.	32ff\	.
.	32gg\	.
.	32aa\JJJ	.
!LO:TX:a:t=2	!LO:TX:a:t=2	!
8B\	8d\ 8a 8dd	.
!	!LO:TX:a:t=3	!
!	!LO:TUP:a:problem:klamra łukowa	!
8r	32b\LLL	.
.	32cc\	.
.	32dd\	.
.	32ee\	.
!LO:TX:a:t=3	!	!
(>(<8A\L 8a	32ff\	.
.	32gg\	.
.	32aa\	.
!	!LO:TX:a:t=4	!
.	32bb\JJJ	.
8G\J)) 8g	4e\ 4b 4ee	.
8c\	.	.
8r	8r	.
=30	=30	=30
!	!LO:TUP:a:problem:klamra łukowa	!
((8B\ 8b	28cc\LLL	.
.	28dd\	.
.	28ee\	.
.	28ff\	.
[4.A\)) [4.a	.	.
.	28gg\	.
.	28aa\	.
.	28bb\JJJ	.
.	8cc\ 8ccc	.
.	8r	.
16A\LL] 16a]	8.cc#X\L 8.ccc#X	.
16B\ 16b	.	.
16A\ 16a	.	.
16G\JJ 16g	16a\Jk 16cc#	.
(16F\LL 16f	(16a\LL 16dd	.
16E\ 16e	16a\ 16cc# 16ee	.
16D\ 16d	16a\ 16dd 16ff	.
16C\JJ) 16c	16a\JJ) 16dd 16ff 16aa	.
=31	=31	=31
*	*^	*
4BB\ 4B	(<8aa/L	(>8a\L 8dd 8ff	.
.	8gg/J)	8g\J)	.
4r	8r	4ryy	.
.	8d/ 8f 8g	.	.
(8C\L 8c	4d/ 4f 4g 4dd	2ryy	.
8BB\J) 8B	.	.	.
8r	8r	.	.
8GG\ 8G	8g\ 8b 8ff 8gg	.	.
*	*v	*v	*
!!LO:LB:g=original
=32	=32	=32
*tremolo	*	*
(16CC/LL	8ee\ 8gg 8ccc 8eee	.
16C/	.	.
16CC/	8r	.
16C/	.	.
16CC/	[<2.cc\ [<2.ee [<2.gg [>2.ccc	.
16C/	.	.
16CC/	.	.
16C/	.	.
16CC/	.	.
16C/	.	.
16CC/	.	.
16C/	.	.
16CC/	.	.
16C/	.	.
16CC/	.	.
16C/JJ)	.	.
=33	=33	=33
(32CC/LLL	8cc\] 8ee] 8gg] 8ccc]	.
32C/	.	.
32CC/	.	.
32C/	.	.
32CC/	8r	.
32C/	.	.
32CC/	.	.
32C/	.	.
32CC/	[<4c\ [<4e [<4g [>4cc	.
32C/	.	.
32CC/	.	.
32C/	.	.
32CC/	.	.
32C/	.	.
32CC/	.	.
32C/JJJ)	.	.
*Xtremolo	*	*
8CC/	8c\] 8e] 8g] 8cc]	.
8r	8r	.
4r	4r	.
==	==	==
*-	*-	*-
!!!system-decoration: [(s1,s2)]
!!!RDF**kern: < = below
!!!RDF**kern: > = above
!!!ENC: Anastazja Marusiak
!!!END: 2021-11-03
!!!ENC: Marta Chmielewska
!!!END: 2021-11-05
